X:1
T:Um fado
T:Um fado
T:Fernando Correia
T:da récita dos estudantes de medicina UC 1917
T:Galáxia Sonora Coimbrã 2020 (A. Caetano)
C:Fernando Correia
Z:Galáxia Sonora Coimbrã 2020 (A. Caetano)
%%score 1 2
L:1/8
M:4/4
K:G
V:1 treble-8 nm="Voz"
V:2 bass nm="Piano"
V:1
"^Moderato" x2 x2 z/[Q:1/4=110] B,/E/G/ B/G/E/B/ |: G4 z/ B,/E/G/ B/G/E/B/ | %2
w: ||
 A4 z/ B,/^D/F/ A/F/D/A/ | F4 z/ B,/^D/F/ A/F/D/A/ | G4 z/ B,/E/G/ B/G/E/B/ | %5
w: |||
 G4 z/ B,/E/G/ B/G/E/B/ | A4 z/ C/E/A/ c/A/E/c/ | B/B,/E/G/ B/G/E/G/ A/B,/^D/F/ A/F/D/F/ | %8
w: |||
 [G,B,E]4 !fermata!z4 |] B3 B AGFE | c3 (3B/c/B/ A2 z2 | A3 A GFGA | B6 z2 | B3 B AGFE | %14
w: |Vou- me'em- bo- ra vou dei-|xar- te- e- e- e|Mas nem por is- so me'au-|sento|Vou- me'em- bo- ra vou dei-|
 c3 (3B/c/B/ A2 z2 | ^d3 c BFGA | B6 z2 | c3 A AFGA | B6 z E | F3 A d c2 A | B6 z2 | c3 A AFcA | %22
w: xar- te- e- e- e|mas nem por is- so me'au-|sento|Pois só meu cor- po'é que|parte Não|par- te'o meu pen- sa|mento|pois só meu cor- po'é que|
 B6 z e | c3 c B B2 ^d |1 (3f/g/f/e- e2 z/ B,/E/G/ B/G/E/B/ :|2 (3f/g/f/e- e6 | z8 |] %27
w: parte não|par- te'o meu pen- sa-|me- en- en- to * * * * * * * *|||
V:2
 z8 |: [E,,,E,,]>B,, E,>E, B, z z2 | [^D,,^D,]>B,, F,>B,, F, z z2 | [B,,,B,,]>B,, F,>B,, F, z z2 | %4
 [E,,,E,,]>B,, E,>B, G z z2 | [E,,E,]>B,, E,>E, B, z z2 | [C,,C,]>A, C>C, A, z z2 | %7
 [E,,E,]2 [E,G,B,]2 [B,,,B,,]2 [B,,^D,F,]2 | [E,,E,]2 [B,,,B,,]2 [E,,,E,,]2 z2 |] %9
 [E,,E,]2 [G,B,E]2 [G,B,E]2 [G,B,E]2 | [A,,,A,,]2 [E,A,C]2 [E,A,C]2 [E,A,C]2 | %11
 [B,,,A,,]2 [^D,F,B,]2 [D,F,B,]2 [D,F,B,]2 | [E,,E,]2 [G,B,E]2 [G,B,E]2 [G,B,E]2 | %13
 [E,,E,]2 [G,B,E]2 [G,B,E]2 [G,B,E]2 | [A,,,A,,]2 [E,A,C]2 [E,A,C]2 [E,A,C]2 | %15
 [B,,,B,,]2 [^D,F,B,]2 [D,F,B,]2 [D,F,B,]2 | [E,,E,]2 [G,B,E]2 [G,B,E]2 [G,B,E]2 | %17
 [A,,,A,,]2 [E,A,C]2 [E,A,C]2 [E,A,C]2 | [E,,E,]2 [G,B,E]2 [G,B,E]2 [G,B,E]2 | %19
 [B,,,B,,]2 [^D,F,B,]2 [A,,A,]2 [A,CE]2 | [E,,E,]2 [G,B,E]2 [G,B,E]2 [G,B,E]2 | %21
 [A,,,A,,]2 [E,A,C]2 [E,A,C]2 [E,A,C]2 | [E,,E,]2 [G,B,E]2 [G,B,E]2 [G,B,E]2 | %23
 [A,,A,]2 [E,A,C]2 [B,,,B,,]2 [^D,F,B,]2 |1 [E,,C,]2 [E,G,C]2 [E,G,C]2 z2 :|2 %25
 [E,,C,]2 [E,G,C]2 [E,G,C]2 [E,G,C]2 | [E,,G,,B,,E,E]8 |] %27

